X:1
T:Our Savior Will Come
T:Our Savior Will Come
T:Austin Hazelwood
T:George Dunn, 1912
T:Public Domain Courtesy of the Cyber Hymnal™
T:Public Domain Courtesy of the Cyber Hymnal™
C:Austin Hazelwood
Z:Public Domain
Z:Courtesy of the Cyber Hymnal™
%%score ( 1 2 ) ( 3 4 )
L:1/8
Q:1/4=110
M:4/4
K:Bb
V:1 treble 
V:2 treble 
V:3 bass 
V:4 bass 
V:1
 [DF]2 | [Fd]2 [Fd]>[Ec] [DB]2 [FB]2 | [Ec]>[EB] [EG]>[EG] [DF]3 [DF] | %3
w: 1.~Our|Sav- ior will come once|more up- on this earth, Ex-|
w: 2.~He’s|com- ing a- gain with|an- gels shin- ing bright, In|
w: 3.~He’s|com- ing a- gain to|judge the quick and dead, The|
w: 4.~He’s|com- ing a- gain, we|do not know the hour; He|
 [GB]2 [GB]>[GB] [GB]2 [GB]2 | [Gc]>[Gc] [Gc]>[Bd] !fermata![Ac]2 [Fc]2 | %5
w: alt- ed on high and|not of low- ly birth; He’ll|
w: glo- ry so fair from|out the land of light; Tri-|
w: wick- ed shall flee be-|fore His face in dread; The|
w: told us to watch and|pray to Him for pow’r; That,|
 [Fd]2 [Fd]>[Ec] [DB]2 [FB]2 | [Ec]>[EB] [EG]>[EB] [DF]2 [DF]2 | [GB]<[GB] [Bc]>[Bd] [Bd]3 [Ac] | %8
w: ga- ther with Him all|those who love His name, He’s|com- ing, yes, com- ing a-|
w: umph- ant in pow’r, to|earth He will de- scend, He’s|com- ing, yes, com- ing a-|
w: right- eous will shout and|praise His ho- ly name, He’s|com- ing, yes, com- ing a-|
w: come when He may, He’ll|find us rea- dy then, And|wait- ing His com- ing a-|
 [FB]6 ||"^Refrain" [DF]2 | d4 [DB]2 [FB]2 | [GB]>[Gc] [GB]>[EG] [DF]2 [DF]2 | B4 [GB]2 [GB]2 | %13
w: gain.|||||
w: gain.|He’s|com- ing, I|have so oft- en heard, He’s|com- ing, ’tis|
w: gain.|||||
w: gain.|||||
 [Gc]>[Gc] [Gc]>[Bd] !fermata![Ac]2 [Ac]2 | d4 [FB]2 [FB]2 | [GB]>[Gc] [GB]>[EG] [DF]2 [DF]2 | %16
w: |||
w: writ- ten in His Word; He’s|com- ing, we’ll|sing the glad re- frain, He’s|
w: |||
w: |||
 [GB]<[GB] [Bc]>[Ad] [Ad]3 [Fc] | [FB]6 |] %18
w: ||
w: com- ing, yes, com- ing a-|gain.|
w: ||
w: ||
V:2
 x2 | x8 | x8 | x8 | x8 | x8 | x8 | x8 | x6 || x2 | (F2 F>F) x4 | x8 | (G2 G>G) x4 | x8 | %14
 (B2 B>B) x4 | x8 | x8 | x6 |] %18
V:3
 [B,,B,]2 | [B,,B,]2 [B,,B,]>[B,,B,] [B,,F,]2 [D,B,]2 | [E,G,]>[E,G,] [E,B,]>[G,B,] B,3 B, | %3
w: ~|~ ~ ~ ~ ~|~ ~ ~ ~ ~ ~|
 [G,D]2 [G,D]>[G,D] [G,D]2 [G,D]2 | [C,=E]>[C,E] [C,E]>[C,E] !fermata![F,F]2 [F,A,]2 | %5
w: ~ ~ ~ ~ ~|~ ~ ~ ~ ~ ~|
 [B,,B,]2 [B,,B,]>[B,,B,] [B,,F,]2 [D,B,]2 | [E,G,]>[E,G,] [E,B,]>[G,B,] B,2 B,2 | %7
w: ~ ~ ~ ~ ~|~ ~ ~ ~ ~ ~|
 [G,D]<[G,D] [_G,=E]>[F,F] [F,F]3 [F,_E] | [B,,D]6 || [B,,B,]2 | %10
w: ~ ~ ~ ~ ~ ~|~|He’s|
 [B,,B,]2 [B,,B,]>[B,,B,] [B,,F,]2 [D,B,]2 | [E,E]>[E,E] [E,E]>[E,B,] [B,,B,]2 B,2 | %12
w: com- ing a- gain, ~|~ ~ ~ ~ ~ He’s|
 [G,D]2 [G,D]>[G,D] [G,D]2 [G,D]2 | [C,=E]>[C,E] [C,E]>[C,E] !fermata![F,F]2 [F,F]2 | %14
w: com- ing a- gain, ~|~ ~ ~ ~ ~ ~|
 [B,F]2 [B,F]>[B,F] [B,D]2 [B,D]2 | [E,E]>[E,E] [E,E]>[E,B,] [B,,B,]2 B,2 | %16
w: com- ing a- gain. *||
 [G,D]<[G,D] [_G,=E]>[F,F] [F,F]3 [F,_E] | [B,,D]6 |] %18
w: ||
V:4
 x2 | x8 | x4 B,3 B, | x8 | x8 | x8 | x4 B,2 B,2 | x8 | x6 || x2 | x8 | x6 B,2 | x8 | x8 | x8 | %15
 x6 B,2 | x8 | x6 |] %18

